X:1
T:The E-ri-e
M:4/4
L:1/4
K:C
 G/2G/2| c c A G| c c A G| c/2c/2 c d B| c3 G/2G/2| c/2c/2 c d d| e e f f/2f/2|\
 e e d d| c3 G/2G/2| c c A G/2G/2| c c2 G/2G/2| c c/2c/2 d d| e3 G/2G/2|\
 c c d d| e e f f/2f/2| e e d d| c A G G/2G/2| c c d B| c3||
